src/assets/outline/CallSlash.svg

<svg width="24" height="24" viewBox="0 0 24 24"  xmlns="http://www.w3.org/2000/svg">
<path d="M17.4501 22.7497C16.3201 22.7497 15.1301 22.4797 13.9001 21.9597C12.7001 21.4497 11.4901 20.7497 10.3101 19.8997L9.87011 19.5697C9.54011 19.3197 9.48011 18.8497 9.73011 18.5197C9.98011 18.1897 10.4501 18.1297 10.7801 18.3797L11.2001 18.6897C12.2801 19.4797 13.3901 20.1197 14.4901 20.5797C16.2001 21.3097 17.8001 21.4797 19.1201 20.9297C19.6301 20.7197 20.0801 20.3997 20.4901 19.9397C20.7201 19.6897 20.9001 19.4197 21.0501 19.0997C21.1701 18.8497 21.2301 18.5897 21.2301 18.3297C21.2301 18.1697 21.2001 18.0097 21.1201 17.8297C21.1001 17.7797 21.0301 17.6597 20.8401 17.5297L17.5201 15.1697C17.3201 15.0297 17.1401 14.9297 16.9701 14.8597C16.7101 14.7597 16.5401 14.7497 16.3201 14.8897C16.1201 14.9897 15.9401 15.1397 15.7401 15.3397L14.9801 16.0897C14.5901 16.4697 13.9901 16.5597 13.5301 16.3897C13.5101 16.3797 13.4101 16.3397 13.3901 16.3297C13.3801 16.3197 13.2701 16.2797 13.2601 16.2697C13.0401 16.1597 12.8001 15.9997 12.5201 15.7997C12.1901 15.5597 12.1101 15.0897 12.3501 14.7497C12.5901 14.4097 13.0601 14.3397 13.4001 14.5797C13.6101 14.7297 13.8001 14.8497 13.9601 14.9397L13.9501 14.9997L14.6801 14.2697C14.9901 13.9597 15.2901 13.7297 15.5801 13.5797C16.1301 13.2397 16.8301 13.1797 17.5301 13.4697C17.7901 13.5797 18.0701 13.7297 18.3701 13.9397L21.6901 16.2997C22.0501 16.5497 22.3301 16.8697 22.4901 17.2497C22.6401 17.6297 22.7101 17.9797 22.7101 18.3297C22.7101 18.8097 22.6001 19.2897 22.3901 19.7397C22.1801 20.1897 21.9201 20.5797 21.5901 20.9397C21.0201 21.5697 20.4001 22.0197 19.6801 22.3097C18.9901 22.5997 18.2401 22.7497 17.4501 22.7497ZM13.9501 15.0097L13.7901 15.6897L14.0601 14.9897C14.0201 14.9797 13.9701 14.9897 13.9501 15.0097Z" />
<path d="M7.47 17.24C7.28 17.24 7.08 17.17 6.94 17.02C5.89 15.96 4.92 14.83 4.08 13.66C3.22 12.46 2.53 11.27 2.04 10.1C1.51 8.87 1.25 7.67 1.25 6.54C1.25 5.76 1.39 5.02 1.66 4.33C1.95 3.61 2.39 2.96 3 2.39C3.77 1.64 4.65 1.25 5.59 1.25C5.98 1.25 6.38 1.34 6.72 1.5C7.11 1.68 7.44 1.95 7.68 2.31L10 5.58C10.21 5.87 10.37 6.15 10.48 6.43C10.61 6.73 10.68 7.03 10.68 7.32C10.68 7.7 10.57 8.07 10.36 8.42C10.21 8.69 9.98 8.98 9.69 9.27L9.01 9.98C9.02 10.01 9.03 10.03 9.04 10.05C9.16 10.26 9.4 10.62 9.86 11.16C10.34 11.72 10.81 12.22 11.27 12.7C11.56 13 11.56 13.47 11.26 13.76C10.96 14.05 10.49 14.05 10.2 13.75C9.71 13.25 9.23 12.72 8.72 12.13C8.25 11.58 7.91 11.11 7.7 10.72C7.68 10.68 7.66 10.64 7.65 10.6L7.58 10.43C7.52 10.21 7.5 10.08 7.5 9.94C7.5 9.58 7.63 9.26 7.88 9.01L8.63 8.23C8.83 8.03 8.98 7.84 9.08 7.67C9.16 7.54 9.19 7.43 9.19 7.33C9.19 7.25 9.16 7.13 9.11 7.01C9.03 6.82 8.92 6.65 8.78 6.45L6.46 3.17C6.36 3.03 6.24 2.93 6.09 2.86C5.94 2.79 5.77 2.75 5.59 2.75C5.04 2.75 4.53 2.99 4.04 3.47C3.59 3.9 3.26 4.37 3.06 4.88C2.85 5.4 2.75 5.95 2.75 6.54C2.75 7.47 2.97 8.48 3.41 9.52C3.86 10.58 4.49 11.68 5.29 12.78C6.09 13.88 7 14.95 8 15.96C8.29 16.25 8.29 16.73 8 17.02C7.85 17.17 7.66 17.24 7.47 17.24Z" />
<path d="M1.99994 22.7504C1.80994 22.7504 1.61994 22.6804 1.46994 22.5304C1.17994 22.2404 1.17994 21.7604 1.46994 21.4704L21.4699 1.47043C21.7599 1.18043 22.2399 1.18043 22.5299 1.47043C22.8199 1.76043 22.8199 2.24043 22.5299 2.53043L2.52994 22.5304C2.37994 22.6804 2.18994 22.7504 1.99994 22.7504Z" />
</svg>

<?xml version="1.0" encoding="UTF-8"?>
<svg width="24" height="24" viewBox="0 0 24 24" xmlns="http://www.w3.org/2000/svg">
 <path d="m17.45 22.75c-1.13 0-2.32-0.27-3.55-0.79-1.2-0.51-2.41-1.21-3.59-2.06l-0.43999-0.33c-0.33-0.25-0.39-0.72-0.14-1.05s0.71999-0.39 1.05-0.14l0.42 0.31c1.08 0.79 2.19 1.43 3.29 1.89 1.71 0.73 3.31 0.9 4.63 0.35 0.51-0.21 0.96-0.53 1.37-0.99 0.23-0.25 0.41-0.52 0.56-0.84 0.12-0.25 0.18-0.51 0.18-0.77 0-0.16-0.03-0.32-0.11-0.5-0.02-0.05-0.09-0.17-0.28-0.3l-3.32-2.36c-0.2-0.14-0.38-0.24-0.55-0.31-0.26-0.1-0.43-0.11-0.65 0.03-0.2 0.1-0.38 0.25-0.58 0.45l-0.76 0.75c-0.39 0.38-0.99 0.47-1.45 0.3-0.02-0.01-0.12-0.05-0.14-0.06-0.01-0.01-0.12-0.05-0.13-0.06-0.22-0.11-0.46-0.27-0.74-0.47-0.33-0.24-0.41-0.71-0.17-1.05s0.71-0.41 1.05-0.17c0.21 0.15 0.4 0.27 0.56 0.36l-0.01 0.06 0.73-0.73c0.31-0.31 0.61-0.54 0.9-0.69 0.55-0.34 1.25-0.4 1.95-0.11 0.26 0.11 0.54 0.26 0.84 0.47l3.32 2.36c0.36 0.25 0.64 0.57 0.8 0.95 0.15 0.38 0.22 0.73 0.22 1.08 0 0.48-0.11 0.96-0.32 1.41s-0.47 0.84-0.8 1.2c-0.57 0.63-1.19 1.08-1.91 1.37-0.69 0.29-1.44 0.44-2.23 0.44zm-3.5-7.74-0.16 0.68 0.27-0.7c-0.04-0.01-0.09 0-0.11 0.02z"/>
 <path d="m7.47 17.24c-0.19 0-0.39-0.07-0.53-0.22-1.05-1.06-2.02-2.19-2.86-3.36-0.86-1.2-1.55-2.39-2.04-3.56-0.53-1.23-0.79-2.43-0.79-3.56 0-0.78 0.14-1.52 0.41-2.21 0.29-0.72 0.73-1.37 1.34-1.94 0.77-0.75 1.65-1.14 2.59-1.14 0.39 0 0.79 0.09 1.13 0.25 0.39 0.18 0.72 0.45 0.96 0.81l2.32 3.27c0.21 0.29 0.37 0.57 0.48 0.85 0.13 0.3 0.2 0.6 0.2 0.89 0 0.38-0.11 0.75-0.32 1.1-0.15 0.27-0.38 0.56-0.67 0.85l-0.68 0.71c0.01 0.03 0.02 0.05 0.03 0.07 0.12 0.21 0.36 0.57 0.82 1.11 0.48 0.56 0.95 1.06 1.41 1.54 0.29 0.3 0.29 0.77-0.01 1.06s-0.77 0.29-1.06-0.01c-0.49-0.5-0.97-1.03-1.48-1.62-0.47-0.55-0.81-1.02-1.02-1.41-0.02-0.04-0.04-0.08-0.05-0.12l-0.07-0.17c-0.06-0.22-0.08-0.35-0.08-0.49 0-0.36 0.13-0.68 0.38-0.93l0.75-0.78c0.2-0.2 0.35-0.39 0.45-0.56 0.08-0.13 0.11-0.24 0.11-0.34 0-0.08-0.03-0.2-0.08-0.32-0.08-0.19-0.19-0.36-0.33-0.56l-2.32-3.28c-0.1-0.14-0.22-0.24-0.37-0.31s-0.32-0.11-0.5-0.11c-0.55 0-1.06 0.24-1.55 0.72-0.45 0.43-0.78 0.9-0.98 1.41-0.21 0.52-0.31 1.07-0.31 1.66 0 0.93 0.22 1.94 0.66 2.98 0.45 1.06 1.08 2.16 1.88 3.26s1.71 2.17 2.71 3.18c0.29 0.29 0.29 0.77 0 1.06-0.15 0.15-0.34 0.22-0.53 0.22z"/>
 <path d="m1.9999 22.75c-0.19 0-0.38-0.07-0.53-0.22-0.29-0.29-0.29-0.77 0-1.06l20-20c0.29-0.29 0.77-0.29 1.06 0s0.29 0.77 0 1.06l-20 20c-0.15 0.15-0.34 0.22-0.53 0.22z"/>
</svg>
